X: 217
T: Ellin a Roon
%R: __
B: "The Compleat Country Dancing-Master" printed by John Walsh, London ca. 1740
S: 6: CCDM2 http://imslp.org/wiki/The_Compleat_Country_Dancing-Master_(Various) V.2 #12 (18)
Z: 2013 John Chambers <jc:trillian.mit.edu>
M: 3/4
L: 1/8
K: D
% - - - - - - - - - - - - - - - - - - - - - - - - -
[|\
A2B2(dc) | d3ef2 | A2B2(dc) | d6 |\
A2g2a2 | (fg)(ef)(de) | (cA)(Bc)(ef) | e4f2 |\
g2g2g2 | g2B2B2 |
gedefe | deBdA2 |\
gfgaga | fefgfg | edefaf | efedB2 |\
a2g2f2 | d3ff2 | A2B2c2 | d4c2 |]
[|\
A2B2c2 | d3ef2 | A2B2c2 | d6 |\
A2B2c2 | (dc)(de)(fa) | A2B2c2 | e4d2 |\
A2g2g2 | (g2B2)A2 |
A2g2g2 | (f2e2) d2 |\
gfgag2 | fe(fg)ag | (ed)(ef)(ge) | (fe)(dc)(BA) |\
a2gfed | e3fg2 | A2B2c2 | d6 |]
% - - - - - - - - - - - - - - - - - - - - - - - - -
%%begintext align
%% First Man go round the 2d Wo and turn the 2d Man till the 1st
%% Man comes into his own Place the 1st Wo go round 2d man and
%% turn 2d Wo. till the 1st Wo. comes into her own Place the 1st Cu.
%% cross over and go the figure thro till they come into 2d Cu place
%% then lead thro 3d Cu. and cast up and go the figure thro the 1st
%% Cu. and so cast off.
%%endtext
%%sep 1 8 500

%%sep 1 1 500
%%sep 1 1 500
